X: 32471
T: PJ McComiskey's
R: reel
M: 4/4
K: Gmajor
DG~G2 EGce|dB~B2 ABce|dB~B2 ABGA|BG~G2 EGDC|
B,DGE FBdc|BG~G2 ABce|dB~B2 efge|1 fdcA BGGE:|2 fdcA BGGB||
dB~B2 ABGA|BG~G2 EGDG|EGDG EGDG|(3EFG AB cdeg|
dB~B2 ABGA|BG~G2 EGDG|EGDG EGce|1 dBcA BGGB:|2 dBcA BGGE||

